static/logos/discord-wordmark-color.svg

<svg width="100" height="20" viewBox="0 0 100 20" fill="none" xmlns="http://www.w3.org/2000/svg">
<g clip-path="url(#clip0_1_3027)">
<path d="M20.969 1.57492C19.3565 0.83746 17.6441 0.299984 15.8567 0C15.6317 0.387484 15.3817 0.912452 15.2067 1.32494C13.3056 1.04994 11.4181 1.04994 9.54323 1.32494C9.36823 0.912452 9.10573 0.387484 8.89323 0C7.09335 0.299984 5.38093 0.83746 3.77976 1.57492C0.54242 6.34968 -0.33254 11.0119 0.104939 15.6117C2.25483 17.1741 4.32975 18.1241 6.3684 18.7491C6.86838 18.0741 7.31836 17.3491 7.70585 16.5867C6.96838 16.3117 6.26841 15.9742 5.59344 15.5742C5.76844 15.4493 5.94344 15.3118 6.10593 15.1743C10.1807 17.0367 14.5943 17.0367 18.619 15.1743C18.794 15.3118 18.9565 15.4493 19.1315 15.5742C18.4565 15.9742 17.7566 16.3117 17.0191 16.5867C17.4066 17.3491 17.8566 18.0741 18.3565 18.7491C20.394 18.1241 22.4814 17.1741 24.62 15.6117C25.1574 10.287 23.7688 5.66226 20.969 1.57492ZM8.26831 12.7744C7.04335 12.7744 6.0434 11.6619 6.0434 10.2995C6.0434 8.9371 7.01835 7.8246 8.26831 7.8246C9.50573 7.8246 10.5181 8.9371 10.4931 10.2995C10.4931 11.6619 9.50573 12.7744 8.26831 12.7744ZM16.4817 12.7744C15.2567 12.7744 14.2555 11.6619 14.2555 10.2995C14.2555 8.9371 15.2317 7.8246 16.4817 7.8246C17.7191 7.8246 18.7315 8.9371 18.7065 10.2995C18.7065 11.6619 17.7316 12.7744 16.4817 12.7744Z" fill="#5862E3"/>
<path d="M33.2812 3.92432H38.5948C39.8697 3.92432 40.9571 4.12428 41.8446 4.52428C42.7321 4.92428 43.3946 5.47428 43.8321 6.1867C44.2695 6.8992 44.4945 7.71162 44.4945 8.63665C44.4945 9.53657 44.2696 10.3491 43.8071 11.0865C43.3446 11.8115 42.6446 12.3989 41.7071 12.8239C40.7697 13.2489 39.6072 13.4614 38.2198 13.4614H33.2812V3.92432ZM38.1573 11.0365C39.0197 11.0365 39.6822 10.824 40.1447 10.3866C40.6072 9.96157 40.8447 9.36157 40.8447 8.62415C40.8447 7.93662 40.6322 7.38661 40.2197 6.9742C39.8072 6.5617 39.1823 6.3492 38.3448 6.3492H36.6824V11.0365H38.1573Z" fill="#5862E3"/>
<path d="M52.7687 13.4495C52.0312 13.262 51.3688 12.987 50.7812 12.612V10.3496C51.2313 10.6996 51.8187 10.9746 52.5687 11.1996C53.3186 11.4246 54.0436 11.5371 54.7436 11.5371C55.0685 11.5371 55.3185 11.4996 55.481 11.4121C55.6435 11.3246 55.731 11.2246 55.731 11.0996C55.731 10.9621 55.681 10.8496 55.5935 10.7621C55.506 10.6746 55.331 10.5996 55.0685 10.5246L53.4311 10.1622C52.4937 9.94969 51.8312 9.63719 51.4312 9.26219C51.0313 8.88719 50.8437 8.37477 50.8437 7.74974C50.8437 7.22474 51.0188 6.76233 51.3562 6.37483C51.7062 5.98733 52.1937 5.68732 52.8312 5.47482C53.4686 5.2624 54.2061 5.1499 55.0685 5.1499C55.831 5.1499 56.5309 5.2249 57.1684 5.3999C57.8058 5.56232 58.3309 5.77483 58.7434 6.02483V8.16227C58.3184 7.91224 57.8184 7.71224 57.2684 7.56224C56.7059 7.41224 56.131 7.33724 55.5435 7.33724C54.6935 7.33724 54.2686 7.48725 54.2686 7.77475C54.2686 7.91225 54.3311 8.01224 54.4686 8.08727C54.6061 8.16227 54.8435 8.22477 55.1935 8.29977L56.5559 8.54977C57.4434 8.69969 58.1058 8.97469 58.5433 9.36219C58.9808 9.74969 59.1933 10.3121 59.1933 11.0746C59.1933 11.8996 58.8308 12.562 58.1058 13.037C57.3809 13.5245 56.3559 13.762 55.031 13.762C54.2561 13.737 53.5061 13.637 52.7687 13.4495Z" fill="#5862E3"/>
<path d="M62.5687 13.1625C61.7937 12.775 61.1938 12.2625 60.8063 11.6125C60.4063 10.9625 60.2188 10.225 60.2188 9.40004C60.2188 8.58762 60.4187 7.85016 60.8312 7.21274C61.2437 6.56274 61.8437 6.06274 62.6312 5.68782C63.4186 5.32532 64.3686 5.13782 65.4685 5.13782C66.8309 5.13782 67.9559 5.42532 68.8558 6.00024V8.48762C68.5433 8.27512 68.1684 8.08762 67.7434 7.96266C67.3184 7.82516 66.8684 7.76266 66.3935 7.76266C65.5435 7.76266 64.8936 7.91266 64.4061 8.22512C63.9311 8.53762 63.6936 8.93762 63.6936 9.43754C63.6936 9.92504 63.9186 10.325 64.3936 10.6375C64.856 10.95 65.531 11.1125 66.406 11.1125C66.8559 11.1125 67.3059 11.05 67.7434 10.9125C68.1809 10.775 68.5683 10.625 68.8808 10.425V12.8375C67.8808 13.4375 66.7184 13.7374 65.406 13.7374C64.2936 13.7374 63.3561 13.5375 62.5687 13.1625Z" fill="#5862E3"/>
<path d="M72.4249 13.1625C71.6374 12.775 71.0375 12.2625 70.625 11.6C70.2125 10.9375 70 10.2 70 9.37504C70 8.56262 70.2125 7.82516 70.625 7.18774C71.0375 6.55024 71.6374 6.05024 72.4124 5.68782C73.1873 5.32532 74.1248 5.13782 75.201 5.13782C76.276 5.13782 77.2134 5.31282 77.9884 5.68782C78.7633 6.05024 79.3633 6.55024 79.7758 7.18774C80.1882 7.82516 80.3882 8.55012 80.3882 9.37504C80.3882 10.1875 80.1882 10.9375 79.7758 11.6C79.3633 12.2625 78.7758 12.7875 77.9884 13.1625C77.2009 13.5375 76.276 13.7374 75.201 13.7374C74.1373 13.7374 73.2123 13.5375 72.4249 13.1625ZM76.5634 10.75C76.8884 10.4251 77.0634 9.97504 77.0634 9.43754C77.0634 8.88762 76.9009 8.46262 76.5634 8.13762C76.226 7.81266 75.776 7.65016 75.2135 7.65016C74.6261 7.65016 74.1748 7.81266 73.8373 8.13762C73.5123 8.46262 73.3373 8.88762 73.3373 9.43754C73.3373 9.98754 73.4998 10.4251 73.8373 10.75C74.1748 11.0875 74.6261 11.25 75.2135 11.25C75.776 11.2375 76.2385 11.075 76.5634 10.75Z" fill="#5862E3"/>
<path d="M88.7469 5.63718V8.57463C88.3969 8.34963 87.9469 8.23713 87.3969 8.23713C86.6719 8.23713 86.109 8.46213 85.7219 8.89955C85.334 9.33705 85.134 10.0245 85.134 10.9495V13.4494H81.7969V5.49968H85.0719V8.03709C85.2469 7.11209 85.5469 6.42468 85.9469 5.98718C86.3469 5.54968 86.8719 5.31226 87.509 5.31226C87.984 5.31226 88.3969 5.42476 88.7469 5.63718Z" fill="#5862E3"/>
<path d="M99.9964 3.64966V13.4617H96.6593V11.6742C96.3714 12.3492 95.9464 12.8617 95.3714 13.2117C94.7956 13.5617 94.0827 13.7367 93.2327 13.7367C92.4827 13.7367 91.8206 13.5492 91.2577 13.1867C90.6956 12.8242 90.2585 12.3117 89.9585 11.6742C89.6585 11.0243 89.5085 10.2993 89.5085 9.49939C89.4956 8.66189 89.6585 7.91197 89.9956 7.24947C90.3206 6.58705 90.7956 6.07455 91.3956 5.69955C91.9956 5.32455 92.6827 5.13705 93.4577 5.13705C95.0456 5.13705 96.1093 5.82455 96.6593 7.21197V3.64966H99.9964ZM96.1593 10.6868C96.4964 10.3618 96.6714 9.92431 96.6714 9.39939C96.6714 8.88689 96.5093 8.47439 96.1714 8.16197C95.8343 7.84947 95.3843 7.68698 94.8206 7.68698C94.2577 7.68698 93.8077 7.84947 93.4706 8.17447C93.1327 8.49939 92.9706 8.91189 92.9706 9.43689C92.9706 9.96181 93.1327 10.3743 93.4706 10.6993C93.8077 11.0243 94.2456 11.1868 94.8077 11.1868C95.3714 11.1868 95.8214 11.0243 96.1593 10.6868Z" fill="#5862E3"/>
<path d="M47.5734 5.97506C48.532 5.97506 49.3108 5.27546 49.3108 4.41264C49.3108 3.54969 48.532 2.85022 47.5734 2.85022C46.6134 2.85022 45.8359 3.54969 45.8359 4.41264C45.8359 5.27546 46.6134 5.97506 47.5734 5.97506Z" fill="#5862E3"/>
<path d="M49.3108 7.04919C48.2483 7.51161 46.9234 7.52411 45.8359 7.04919V13.4614H49.3108V7.04919Z" fill="#5862E3"/>
</g>
<defs>
<clipPath id="clip0_1_3027">
<rect width="100" height="19.3548" fill="white"/>
</clipPath>
</defs>
</svg>

<svg xmlns="http://www.w3.org/2000/svg" width="320" height="64" fill="none" viewBox="0 0 100 20"><g fill="#5862E3" clip-path="url(#a)"><path d="M20.969 1.575A20.4 20.4 0 0 0 15.857 0c-.225.387-.475.912-.65 1.325a19.542 19.542 0 0 0-5.664 0A16.257 16.257 0 0 0 8.893 0c-1.8.3-3.512.837-5.113 1.575C.542 6.35-.333 11.012.105 15.612a20.835 20.835 0 0 0 6.263 3.137c.5-.675.95-1.4 1.338-2.162a13.116 13.116 0 0 1-2.113-1.013c.175-.125.35-.262.513-.4 4.075 1.863 8.488 1.863 12.513 0 .175.138.337.275.512.4-.675.4-1.374.738-2.112 1.013.388.762.838 1.487 1.338 2.162a20.72 20.72 0 0 0 6.263-3.137c.537-5.325-.851-9.95-3.651-14.037Zm-12.7 11.2c-1.226 0-2.226-1.113-2.226-2.476 0-1.362.975-2.474 2.225-2.474 1.238 0 2.25 1.112 2.225 2.474 0 1.363-.987 2.475-2.225 2.475Zm8.213 0c-1.225 0-2.226-1.113-2.226-2.476 0-1.362.976-2.474 2.226-2.474 1.237 0 2.25 1.112 2.224 2.474 0 1.363-.974 2.475-2.224 2.475ZM33.281 3.924h5.314c1.275 0 2.362.2 3.25.6.887.4 1.55.95 1.987 1.663.438.712.663 1.525.663 2.45 0 .9-.225 1.712-.688 2.45-.462.725-1.162 1.312-2.1 1.737-.937.425-2.1.637-3.487.637H33.28V3.924Zm4.876 7.113c.863 0 1.525-.213 1.988-.65.462-.425.7-1.025.7-1.763 0-.687-.213-1.237-.625-1.65-.413-.412-1.038-.625-1.875-.625h-1.663v4.688h1.475ZM52.769 13.45a6.752 6.752 0 0 1-1.988-.838V10.35c.45.35 1.038.625 1.788.85.75.225 1.475.337 2.175.337.325 0 .575-.037.737-.125.163-.087.25-.187.25-.312 0-.138-.05-.25-.138-.338-.087-.087-.262-.162-.525-.237l-1.637-.363c-.937-.212-1.6-.525-2-.9-.4-.375-.587-.887-.587-1.512 0-.525.175-.988.512-1.375.35-.388.838-.688 1.475-.9.638-.213 1.375-.325 2.237-.325.763 0 1.463.075 2.1.25.638.162 1.163.375 1.575.625v2.137a6.066 6.066 0 0 0-1.475-.6 6.665 6.665 0 0 0-1.724-.225c-.85 0-1.275.15-1.275.438 0 .137.062.237.2.312.137.075.374.138.724.213l1.363.25c.887.15 1.55.425 1.987.812.438.388.65.95.65 1.713 0 .825-.362 1.487-1.087 1.962-.725.487-1.75.725-3.075.725a10.498 10.498 0 0 1-2.262-.313ZM62.569 13.162c-.775-.387-1.375-.9-1.763-1.55-.4-.65-.587-1.387-.587-2.212 0-.812.2-1.55.612-2.187.413-.65 1.013-1.15 1.8-1.525.788-.363 1.738-.55 2.838-.55 1.362 0 2.487.287 3.387.862v2.488a3.983 3.983 0 0 0-1.113-.525 4.357 4.357 0 0 0-1.35-.2c-.85 0-1.5.15-1.987.462-.475.313-.712.713-.712 1.213 0 .487.225.887.7 1.2.462.312 1.137.475 2.012.475.45 0 .9-.063 1.337-.2.438-.138.825-.288 1.138-.488v2.412c-1 .6-2.163.9-3.475.9-1.112 0-2.05-.2-2.837-.575ZM72.425 13.162c-.788-.387-1.388-.9-1.8-1.562A4.118 4.118 0 0 1 70 9.375c0-.812.213-1.55.625-2.187.412-.638 1.012-1.138 1.787-1.5.775-.363 1.713-.55 2.789-.55 1.075 0 2.012.175 2.787.55.775.362 1.375.862 1.788 1.5.412.637.612 1.362.612 2.187 0 .813-.2 1.563-.612 2.225-.413.662-1 1.188-1.788 1.563-.787.374-1.712.574-2.787.574-1.064 0-1.989-.2-2.776-.575Zm4.138-2.412c.325-.325.5-.775.5-1.312 0-.55-.162-.975-.5-1.3-.337-.325-.787-.488-1.35-.488-.587 0-1.038.163-1.376.488-.325.325-.5.75-.5 1.3s.163.987.5 1.312c.338.338.79.5 1.376.5.563-.012 1.026-.175 1.35-.5ZM88.747 5.637v2.938c-.35-.225-.8-.338-1.35-.338-.725 0-1.288.225-1.675.663-.388.437-.588 1.124-.588 2.05v2.5h-3.337V5.5h3.275v2.537c.175-.925.475-1.612.875-2.05.4-.437.925-.675 1.562-.675.475 0 .888.113 1.238.325ZM99.996 3.65v9.812H96.66v-1.788c-.288.675-.713 1.188-1.288 1.538-.575.35-1.288.525-2.138.525-.75 0-1.412-.188-1.975-.55-.562-.363-1-.875-1.3-1.513-.3-.65-.45-1.375-.45-2.175-.012-.837.15-1.587.488-2.25a3.74 3.74 0 0 1 1.4-1.55c.6-.374 1.287-.562 2.062-.562 1.588 0 2.651.688 3.201 2.075V3.65h3.337Zm-3.837 7.037c.337-.325.512-.763.512-1.288 0-.512-.162-.925-.5-1.237-.337-.313-.787-.475-1.35-.475-.563 0-1.013.162-1.35.487-.338.325-.5.738-.5 1.263 0 .525.162.937.5 1.262.337.325.775.488 1.337.488.563 0 1.013-.163 1.351-.5ZM47.573 5.975c.959 0 1.738-.7 1.738-1.562 0-.863-.779-1.563-1.738-1.563-.96 0-1.737.7-1.737 1.563 0 .862.777 1.562 1.737 1.562ZM49.31 7.05a4.47 4.47 0 0 1-3.474 0v6.411h3.475V7.05Z"/></g><defs><clipPath id="a"><path fill="#fff" d="M0 0h100v19.355H0z"/></clipPath></defs></svg>
